packages/foundations/assets/icons/functional/images/food/breakfast_14.svg

<svg width="14" height="14" viewBox="0 0 14 14" fill="none" xmlns="http://www.w3.org/2000/svg">
<g clip-path="url(#clip0_185_1042)">
<path fill-rule="evenodd" clip-rule="evenodd" d="M11.2445 7.26235C11.998 7.28802 12.6445 7.79061 12.6445 8.48735C12.6445 9.16794 12.0209 9.69485 11.2445 9.71025V10.2309C11.2445 10.7858 11.1753 11.1885 10.9954 11.5187C10.8155 11.8489 10.5705 12.0924 10.2508 12.2633C9.94046 12.4293 9.63455 12.4993 9.1229 12.5107L8.27591 12.5124C7.66551 12.5124 7.32951 12.4459 6.98808 12.2633C6.66844 12.0924 6.41445 11.8384 6.24351 11.5187C6.07751 11.2083 6.0075 10.9024 5.99615 10.3908L5.99446 7.26235H11.2445ZM10.1943 8.31235H7.04433L7.0455 10.3582C7.0504 10.6367 7.06427 10.7682 7.12142 10.919C7.17858 11.0698 7.3466 11.2643 7.48326 11.3374C7.58266 11.3906 7.75573 11.4613 8.12837 11.4613C8.37679 11.4613 8.69205 11.4613 9.07414 11.4613C9.47294 11.4613 9.63639 11.4012 9.75567 11.3374C9.89232 11.2643 9.99643 11.1602 10.0695 11.0236C10.132 10.9067 10.1943 10.6661 10.1943 10.4338V8.31235ZM5.22449 1.64982C5.96021 2.00985 6.0581 2.64752 5.76021 3.29369L5.57453 3.65588C5.75606 3.76639 5.8542 3.96882 5.82797 4.17524L5.71939 5.02949C6.05554 4.98735 6.33085 5.20068 6.35612 5.48712C6.3814 5.77357 6.1772 6.04586 5.87075 6.07159L2.41335 6.33264C2.3505 7.14313 2.71956 8.14902 3.01353 8.56983L4.37644 7.92404C4.61339 7.80362 4.86706 7.852 5.04577 8.09288C5.22449 8.33376 5.12593 8.69239 4.91348 8.82355L4.31782 9.13129C4.46557 9.50985 4.85736 9.92666 4.97101 10.0319C5.18375 10.2289 5.1965 10.5611 4.99949 10.7738C4.80248 10.9866 4.4703 10.9993 4.25757 10.8023C4.10221 10.6584 3.94945 10.4923 3.83013 10.3385C3.62721 10.0769 3.47285 9.82349 3.36129 9.56703L3.08854 9.69658C2.88394 9.79357 2.64021 9.74847 2.48387 9.58469C2.05099 9.13119 1.73649 8.5228 1.53391 7.76675C1.33133 7.0107 1.2995 6.32658 1.44764 5.71739C1.49541 5.52094 1.65939 5.28248 2.15106 5.30039C2.1008 4.88362 2.09858 4.52217 2.14441 4.21606C2.2409 3.57157 2.53812 3.01044 3.04495 2.5635C3.17686 2.44718 3.35499 2.40683 3.51942 2.44788L3.62532 2.24573C3.97438 1.57597 4.46321 1.27728 5.22449 1.64982ZM8.26946 4.98735V6.38735H7.21946V4.98735H8.26946ZM10.0195 4.28735V6.38735H8.96946V4.28735H10.0195ZM3.48506 3.62558C3.29644 3.94281 3.19564 4.17524 3.16679 4.52039C3.14756 4.7505 3.15718 4.96765 3.19564 5.17185L4.65288 5.09885L4.74362 4.38281L3.48506 3.62558Z" fill="#1A1C1F"/>
</g>
<defs>
<clipPath id="clip0_185_1042">
<rect width="14" height="14" fill="white"/>
</clipPath>
</defs>
</svg>

<svg xmlns="http://www.w3.org/2000/svg" width="14" height="14" fill="none"><g clip-path="url(#a)"><path fill="#1A1C1F" fill-rule="evenodd" d="M11.245 7.262c.753.026 1.4.529 1.4 1.225 0 .68-.624 1.208-1.4 1.223v.52c0 .556-.07.958-.25 1.289s-.425.573-.744.744c-.31.166-.616.236-1.128.248l-.847.001c-.61 0-.946-.066-1.288-.249a1.8 1.8 0 0 1-.744-.744c-.166-.31-.236-.617-.248-1.128l-.002-3.129zm-1.05 1.05h-3.15v2.046c.005.279.02.41.076.561a.94.94 0 0 0 .362.418c.1.054.273.124.645.124h.946c.399 0 .562-.06.682-.124a.75.75 0 0 0 .313-.313 1.4 1.4 0 0 0 .125-.59zM5.224 1.65c.735.36.833.998.535 1.644l-.185.362a.53.53 0 0 1 .253.52l-.109.853c.337-.042.612.172.637.458a.535.535 0 0 1-.485.585l-3.458.26c-.062.811.307 1.817.6 2.238l1.363-.646c.237-.12.491-.072.67.169.178.24.08.6-.133.73l-.595.308c.148.379.54.796.653.9a.525.525 0 1 1-.713.771 4 4 0 0 1-.428-.463 3.6 3.6 0 0 1-.469-.772l-.272.13a.525.525 0 0 1-.605-.112q-.648-.683-.95-1.818-.306-1.135-.086-2.05c.047-.196.211-.435.703-.417a4 4 0 0 1-.007-1.084 2.68 2.68 0 0 1 .9-1.653.53.53 0 0 1 .475-.115l.106-.202c.35-.67.838-.969 1.6-.596m3.044 3.337v1.4H7.22v-1.4zm1.75-.7v2.1H8.97v-2.1zm-6.534-.661c-.189.317-.29.55-.318.894q-.03.346.029.652l1.457-.073.09-.716z" clip-rule="evenodd"/></g><defs><clipPath id="a"><path fill="#fff" d="M0 0h14v14H0z"/></clipPath></defs></svg>
